brandFactory_export/2.Regular/Abierto _2Regular.svg

<?xml version="1.0" encoding="UTF-8"?>
<svg width="24px" height="24px" viewBox="0 0 24 24" version="1.1" xmlns="http://www.w3.org/2000/svg" xmlns:xlink="http://www.w3.org/1999/xlink">
    <title>2.Regular/Abierto _2Regular</title>
    <g id="Symbols" stroke="none" stroke-width="1" fill="none" fill-rule="evenodd">
        <g id="2.Regular/Abierto-_2Regular" fill="#5CB615" fill-rule="nonzero">
            <path d="M21.7680672,21.7983193 C22.0336134,21.5327731 22.1781513,21.1764706 22.1781513,20.8033613 L22.1546218,13.7882353 C22.1815126,13.287395 22.0672269,12.9142857 21.8319328,12.6621849 C21.589916,12.4067227 21.2268908,12.2689076 20.7731092,12.2655462 L2.84369748,12.2689076 C2.46722689,12.2689076 2.11428571,12.4168067 1.8487395,12.6823529 C1.58319328,12.9512605 1.43865546,13.3042017 1.43865546,13.6773109 L1.46218487,20.692437 C1.43529412,21.189916 1.54957983,21.5663866 1.78487395,21.8184874 C2.02689076,22.0739496 2.39327731,22.2117647 2.84369748,22.2151261 L20.7731092,22.2117647 C21.1495798,22.2084034 21.5058824,22.0638655 21.7680672,21.7983193 Z M11.8117647,1.47563025 C11.3411765,1.47563025 10.9613445,1.85546218 10.9613445,2.32605042 C10.9613445,2.79327731 11.3411765,3.17647059 11.8117647,3.17647059 C12.2823529,3.17647059 12.6621849,2.79663866 12.6621849,2.32605042 C12.6621849,1.85882353 12.2823529,1.47563025 11.8117647,1.47563025 Z M11.8117647,4.62184874 C11.4420168,4.62184874 11.0991597,4.52773109 10.789916,4.37310924 L4.3394958,10.8268908 L19.307563,10.8235294 L12.8336134,4.3697479 C12.5243697,4.52436975 12.1815126,4.62184874 11.8117647,4.62184874 Z M23.6,13.8252101 L23.6235294,20.8 C23.6235294,21.5630252 23.3277311,22.2789916 22.789916,22.8168067 C22.2521008,23.3546218 21.5361345,23.6504202 20.7764706,23.6537815 L2.84033613,23.6571429 C1.98991597,23.6504202 1.24369748,23.3478992 0.736134454,22.8033613 C0.225210084,22.2554622 -0.0235294118,21.512605 0.0235294118,20.6521008 L0,13.6773109 C0,12.9142857 0.295798319,12.1983193 0.833613445,11.6605042 C1.22016807,11.2739496 1.70084034,11.0151261 2.22521008,10.897479 L9.77142857,3.34789916 C9.61680672,3.03865546 9.51932773,2.69579832 9.51932773,2.32605042 C9.51932773,1.05882353 10.5478992,0.0302521008 11.8117647,0.0302521008 C13.0756303,0.0302521008 14.1042017,1.05882353 14.1042017,2.32605042 C14.1042017,2.69579832 14.010084,3.03865546 13.8554622,3.34789916 L21.4117647,10.8840336 C21.9966387,10.9983193 22.507563,11.2705882 22.887395,11.6739496 C23.3983193,12.2184874 23.6470588,12.9613445 23.6,13.8252101 L23.6,13.8252101 Z M5.92941176,18.2655462 C6.16806723,18.2655462 6.56470588,18.2655462 6.56470588,17.0487395 C6.56470588,15.8218487 6.1512605,15.8218487 5.92941176,15.8218487 C5.6907563,15.8218487 5.2907563,15.8218487 5.2907563,17.0487395 C5.2907563,18.2655462 5.6907563,18.2655462 5.92941176,18.2655462 Z M5.92941176,14.702521 C6.58823529,14.702521 7.69411765,15.0084034 7.69411765,17.0487395 C7.69411765,19.0857143 6.58823529,19.3915966 5.92941176,19.3915966 C5.26722689,19.3915966 4.16134454,19.0890756 4.16134454,17.0487395 C4.16134454,15.0084034 5.26722689,14.702521 5.92941176,14.702521 Z M10.1512605,16.7294118 C10.1882353,16.6857143 10.2285714,16.6151261 10.2285714,16.3428571 C10.2285714,16.1210084 10.1815126,15.9865546 10.1344538,15.9327731 C10.1344538,15.9327731 10.0705882,15.8756303 9.80168067,15.8756303 L9.46554622,15.8756303 L9.46554622,16.789916 L9.86890756,16.789916 C10.097479,16.7865546 10.1277311,16.7563025 10.1512605,16.7294118 Z M9.82184874,14.7697479 C10.3327731,14.7697479 10.7092437,14.9008403 10.9647059,15.1731092 C11.2235294,15.4487395 11.3579832,15.8386555 11.3579832,16.3294118 C11.3579832,16.8168067 11.2403361,17.1865546 10.994958,17.4621849 C10.7495798,17.7445378 10.3932773,17.892437 9.93277311,17.892437 L9.46554622,17.892437 L9.46554622,18.8369748 C9.46554622,19.102521 9.25042017,19.3176471 8.98487395,19.3176471 L8.82689076,19.3176471 C8.56134454,19.3176471 8.34621849,19.102521 8.34621849,18.8369748 L8.34621849,15.2537815 C8.34621849,14.9882353 8.56134454,14.7731092 8.82689076,14.7731092 L9.82184874,14.7731092 L9.82184874,14.7697479 Z M14.1983193,18.2117647 C14.4638655,18.2117647 14.6789916,18.4268908 14.6789916,18.692437 L14.6789916,18.8336134 C14.6789916,19.0991597 14.4638655,19.3142857 14.1983193,19.3142857 L12.4336134,19.3142857 C12.1680672,19.3142857 11.9529412,19.0991597 11.9529412,18.8336134 L11.9529412,15.2504202 C11.9529412,14.9848739 12.1680672,14.7697479 12.4336134,14.7697479 L14.1445378,14.7697479 C14.292437,14.7697479 14.4268908,14.8336134 14.5210084,14.9478992 C14.6117647,15.0621849 14.6453782,15.210084 14.6151261,15.3546218 L14.5848739,15.4957983 C14.5378151,15.7176471 14.3394958,15.8722689 14.1142857,15.8722689 L13.0689076,15.8722689 L13.0689076,16.4638655 L13.8621849,16.4638655 C14.1277311,16.4638655 14.3428571,16.6789916 14.3428571,16.9445378 L14.3428571,17.0857143 C14.3428571,17.3512605 14.1277311,17.5663866 13.8621849,17.5663866 L13.0689076,17.5663866 L13.0689076,18.2151261 L14.1983193,18.2151261 L14.1983193,18.2117647 Z M18.205042,14.7697479 C18.4705882,14.7697479 18.6857143,14.9848739 18.6857143,15.2504202 L18.6857143,18.8369748 C18.6857143,19.102521 18.4705882,19.3176471 18.205042,19.3176471 L18.0840336,19.3176471 C17.9226891,19.3176471 17.7714286,19.2369748 17.6840336,19.102521 L16.4067227,17.1663866 L16.4067227,18.8369748 C16.4067227,19.102521 16.1915966,19.3176471 15.9260504,19.3176471 L15.7815126,19.3176471 C15.5159664,19.3176471 15.3008403,19.102521 15.3008403,18.8369748 L15.3008403,15.2504202 C15.3008403,14.9848739 15.5159664,14.7697479 15.7815126,14.7697479 L15.8957983,14.7697479 C16.0571429,14.7697479 16.2084034,14.8504202 16.2957983,14.9848739 L17.5764706,16.9210084 L17.5764706,15.2504202 C17.5764706,14.9848739 17.7915966,14.7697479 18.0571429,14.7697479 L18.205042,14.7697479 L18.205042,14.7697479 Z" id="Abierto-_2Regular"></path>
        </g>
    </g>
</svg>

<svg width="24" height="24" viewBox="0 0 24 24" xmlns="http://www.w3.org/2000/svg"><path d="M21.768 21.798c.266-.265.41-.622.41-.995l-.023-7.015c.027-.5-.088-.874-.323-1.126-.242-.255-.605-.393-1.059-.396l-17.93.003a1.407 1.407 0 00-1.405 1.408l.024 7.015c-.027.498.088.874.323 1.126.242.256.608.394 1.059.397l17.93-.003c.376-.004.732-.148.994-.414zM11.812 1.476a.85.85 0 100 1.7.85.85 0 100-1.7zm0 3.146a2.27 2.27 0 01-1.022-.249l-6.45 6.454 14.968-.003-6.474-6.454c-.31.154-.652.252-1.022.252zM23.6 13.825l.024 6.975c0 .763-.296 1.479-.834 2.017a2.847 2.847 0 01-2.014.837l-17.936.003c-.85-.007-1.596-.31-2.104-.854-.51-.548-.76-1.29-.712-2.15L0 13.676c0-.763.296-1.479.834-2.016a2.836 2.836 0 011.391-.764l7.546-7.55a2.273 2.273 0 01-.252-1.02A2.296 2.296 0 0111.812.03a2.296 2.296 0 012.292 2.296c0 .37-.094.713-.249 1.022l7.557 7.536a2.72 2.72 0 011.475.79c.511.544.76 1.287.713 2.151zm-17.67 4.44c.238 0 .635 0 .635-1.216 0-1.227-.414-1.227-.636-1.227-.238 0-.638 0-.638 1.227 0 1.217.4 1.217.638 1.217zm0-3.562c.658 0 1.764.305 1.764 2.346 0 2.037-1.106 2.343-1.765 2.343-.662 0-1.768-.303-1.768-2.343s1.106-2.346 1.768-2.346zm4.221 2.026c.037-.043.078-.114.078-.386 0-.222-.047-.356-.095-.41 0 0-.063-.057-.332-.057h-.336v.914h.403c.228-.003.259-.034.282-.06zm-.33-1.96c.512 0 .888.132 1.144.404.259.276.393.666.393 1.156 0 .488-.118.858-.363 1.133-.245.283-.602.43-1.062.43h-.467v.945a.48.48 0 01-.481.48h-.158a.48.48 0 01-.48-.48v-3.583a.48.48 0 01.48-.48h.995v-.004zm4.377 3.443a.48.48 0 01.481.48v.142a.48.48 0 01-.48.48h-1.765a.48.48 0 01-.481-.48V15.25a.48.48 0 01.48-.48h1.712c.147 0 .282.064.376.178a.49.49 0 01.094.407l-.03.14a.479.479 0 01-.47.377h-1.046v.592h.793a.48.48 0 01.48.48v.142a.48.48 0 01-.48.48h-.793v.65h1.13v-.004zm4.007-3.442a.48.48 0 01.48.48v3.587a.48.48 0 01-.48.48h-.121a.477.477 0 01-.4-.214l-1.277-1.937v1.671a.48.48 0 01-.48.48h-.145a.48.48 0 01-.481-.48V15.25a.48.48 0 01.48-.48h.115c.161 0 .312.08.4.215l1.28 1.936v-1.67a.48.48 0 01.481-.481h.148z" fill="#5CB615" fill-rule="nonzero"/></svg>
